packages/ffe-icons/icons/open/400/sm/open_in_full.svg

<svg xmlns="http://www.w3.org/2000/svg" height="20" viewBox="0 -960 960 960" width="20"><path d="M180.283-144Q165-144 154.5-154.338 144-164.677 144-179.96v-215.757Q144-411 154.289-421.5q10.29-10.5 25.5-10.5Q195-432 205.5-421.688 216-411.375 216-396.13V-267l477-477H563.87q-15.245 0-25.558-10.289Q528-764.579 528-779.789 528-795 538.338-805.5 548.677-816 563.96-816h215.757Q795-816 805.5-805.662 816-795.323 816-780.04v215.757Q816-549 805.711-538.5q-10.29 10.5-25.5 10.5Q765-528 754.5-538.312 744-548.625 744-563.87V-693L267-216h129.13q15.245 0 25.558 10.289Q432-195.421 432-180.211 432-165 421.662-154.5 411.323-144 396.04-144H180.283Z"/></svg>

<svg xmlns="http://www.w3.org/2000/svg" height="20" viewBox="0 -960 960 960" width="20"><path d="M180.28-144q-15.28 0-25.78-10.34-10.5-10.34-10.5-25.62v-215.76q0-15.28 10.29-25.78 10.29-10.5 25.5-10.5t25.71 10.31q10.5 10.31 10.5 25.56V-267l477-477H563.87q-15.24 0-25.56-10.29Q528-764.58 528-779.79t10.34-25.71q10.34-10.5 25.62-10.5h215.76q15.28 0 25.78 10.34 10.5 10.34 10.5 25.62v215.76q0 15.28-10.29 25.78-10.29 10.5-25.5 10.5t-25.71-10.31Q744-548.63 744-563.87V-693L267-216h129.13q15.25 0 25.56 10.29Q432-195.42 432-180.21t-10.34 25.71Q411.32-144 396.04-144H180.28Z"/></svg>
